src/sym-ali.svg

<svg width="33" height="32" viewBox="0 0 33 32" fill="none" xmlns="http://www.w3.org/2000/svg">
<g clip-path="url(#clip0_3393:12250)">
<path fill-rule="evenodd" clip-rule="evenodd" d="M16.4338 31.84C25.1819 31.84 32.2738 24.7482 32.2738 16C32.2738 7.25184 25.1819 0.160034 16.4338 0.160034C7.68556 0.160034 0.59375 7.25184 0.59375 16C0.59375 24.7482 7.68556 31.84 16.4338 31.84ZM6.86471 9.14339L11.5281 4.47998H13.7444C13.1441 4.82628 11.1587 7.2965 10.6508 9.14339H6.86471ZM16.0068 4.47998V9.14339H11.5281C11.8436 8.18147 12.9687 5.90209 14.9449 4.47998H16.0068ZM16.9072 9.14339H21.4321C20.3794 6.63162 18.6694 4.98788 17.9461 4.47998H16.9072V9.14339ZM25.9801 9.14339H22.3094C21.7322 7.75822 20.6887 5.84669 19.1927 4.47998H21.2705L25.9801 9.14339ZM10.5355 22.8566H6.8648L11.5744 27.52H13.6521C12.1561 26.1533 11.1127 24.2417 10.5355 22.8566ZM11.4128 22.8566H15.9377L15.9377 27.52L14.8988 27.52C14.1754 27.0121 12.4655 25.3683 11.4128 22.8566ZM16.838 22.8566V27.52H17.9C19.8762 26.0979 21.0012 23.8185 21.3167 22.8566L16.838 22.8566ZM21.3167 27.52L25.9801 22.8566H22.194C21.6861 24.7035 19.7007 27.1737 19.1005 27.52H21.3167ZM6.35547 20.0001H7.87947L8.37147 18.1521H10.7955L11.2875 20.0001H12.8115L10.4355 11.1801H8.73147L6.35547 20.0001ZM8.73147 16.8201L8.97147 15.9321C9.29147 14.7561 9.49547 13.8041 9.58347 13.0761C9.67147 13.8041 9.87547 14.7561 10.1955 15.9321L10.4355 16.8201H8.73147ZM14.2415 20.0001H19.2455V18.6681H15.7295V11.1801H14.2415V20.0001ZM25.8236 20.0001H20.9996V18.6681H22.6676V12.5121H20.9996V11.1801H25.8236V12.5121H24.1556V18.6681H25.8236V20.0001Z" fill="black"/>
</g>
<defs>
<clipPath id="clip0_3393:12250">
<rect width="32" height="32" fill="white" transform="translate(0.441406)"/>
</clipPath>
</defs>
</svg>

<svg xmlns="http://www.w3.org/2000/svg" viewBox="0 0 33 32">
	<path
		d="M16.4 31.8c8.7 0 15.8-7.1 15.8-15.8C32.2 7.3 25.1.2 16.4.2 7.7.2.6 7.3.6 16c0 8.7 7.1 15.8 15.8 15.8zM6.9 9.1l4.7-4.7h2.2c-.6.3-2.6 2.8-3.1 4.7H6.9zM16 4.5v4.7h-4.5c.3-1 1.4-3.2 3.4-4.7H16zm.9 4.6h4.5c-1.1-2.5-2.8-4.2-3.5-4.7h-1v4.7zm9.1 0h-3.7c-.6-1.4-1.6-3.3-3.1-4.7h2.1L26 9.1zM10.5 22.9H6.9l4.7 4.7h2.1c-1.5-1.4-2.6-3.4-3.2-4.7zm.9 0h4.5v4.7h-1c-.7-.6-2.4-2.2-3.5-4.7zm5.4 0v4.7h1.1c2-1.4 3.1-3.7 3.4-4.7h-4.5zm4.5 4.6l4.7-4.7h-3.8c-.5 1.8-2.5 4.3-3.1 4.7h2.2zM6.4 20h1.5l.5-1.8h2.4l.5 1.8h1.5l-2.4-8.8H8.7L6.4 20zm2.3-3.2l.3-.9c.3-1.2.5-2.1.6-2.9.1.7.3 1.7.6 2.9l.2.9H8.7zm5.5 3.2h5v-1.3h-3.5v-7.5h-1.5V20zm11.6 0H21v-1.3h1.7v-6.2H21v-1.3h4.8v1.3h-1.7v6.2h1.7V20z"
		fill-rule="evenodd" clip-rule="evenodd" />
</svg>
